img/deals/gas-pump.svg

<svg width="24" height="24" viewBox="0 0 24 24" fill="none" xmlns="http://www.w3.org/2000/svg">
<g clip-path="url(#clip0_1_231)">
<path d="M24 6.945C23.9717 5.39686 23.3423 3.92042 22.245 2.828L19.707 0.293C19.5184 0.110842 19.2658 0.0100475 19.0036 0.012326C18.7414 0.0146044 18.4906 0.119773 18.3052 0.305181C18.1198 0.49059 18.0146 0.741402 18.0123 1.0036C18.01 1.2658 18.1108 1.5184 18.293 1.707L20 3.414V6C20 6.53043 20.2107 7.03914 20.5858 7.41421C20.9609 7.78929 21.4696 8 22 8V18C22 18.2652 21.8946 18.5196 21.7071 18.7071C21.5196 18.8946 21.2652 19 21 19C20.7348 19 20.4804 18.8946 20.2929 18.7071C20.1054 18.5196 20 18.2652 20 18V17C20 16.2044 19.6839 15.4413 19.1213 14.8787C18.5587 14.3161 17.7956 14 17 14H16V5C15.9984 3.67441 15.4711 2.40356 14.5338 1.46622C13.5964 0.528882 12.3256 0.00158786 11 0L5 0C3.67441 0.00158786 2.40356 0.528882 1.46622 1.46622C0.528882 2.40356 0.00158786 3.67441 0 5L0 19C0.00158786 20.3256 0.528882 21.5964 1.46622 22.5338C2.40356 23.4711 3.67441 23.9984 5 24H11C12.3256 23.9984 13.5964 23.4711 14.5338 22.5338C15.4711 21.5964 15.9984 20.3256 16 19V16H17C17.2652 16 17.5196 16.1054 17.7071 16.2929C17.8946 16.4804 18 16.7348 18 17V18C18 18.7956 18.3161 19.5587 18.8787 20.1213C19.4413 20.6839 20.2044 21 21 21C21.7956 21 22.5587 20.6839 23.1213 20.1213C23.6839 19.5587 24 18.7956 24 18C24 18 24 6.963 24 6.945ZM5 2H11C11.7956 2 12.5587 2.31607 13.1213 2.87868C13.6839 3.44129 14 4.20435 14 5V9H2V5C2 4.20435 2.31607 3.44129 2.87868 2.87868C3.44129 2.31607 4.20435 2 5 2ZM14 19C14 19.7956 13.6839 20.5587 13.1213 21.1213C12.5587 21.6839 11.7956 22 11 22H5C4.20435 22 3.44129 21.6839 2.87868 21.1213C2.31607 20.5587 2 19.7956 2 19V11H14V19Z" fill="#EFBE4C"/>
</g>
<defs>
<clipPath id="clip0_1_231">
<rect width="24" height="24" fill="white"/>
</clipPath>
</defs>
</svg>

<svg width="24" height="24" fill="none" xmlns="http://www.w3.org/2000/svg"><g clip-path="url(#clip0_1_231)"><path d="M24 6.945a5.963 5.963 0 00-1.755-4.117L19.707.293a1 1 0 00-1.414 1.414L20 3.414V6a2 2 0 002 2v10a1 1 0 01-2 0v-1a3 3 0 00-3-3h-1V5a5.006 5.006 0 00-5-5H5a5.006 5.006 0 00-5 5v14a5.006 5.006 0 005 5h6a5.006 5.006 0 005-5v-3h1a1 1 0 011 1v1a3 3 0 006 0V6.945zM5 2h6a3 3 0 013 3v4H2V5a3 3 0 013-3zm9 17a3 3 0 01-3 3H5a3 3 0 01-3-3v-8h12v8z" fill="#EFBE4C"/></g><defs><clipPath id="clip0_1_231"><path fill="#fff" d="M0 0h24v24H0z"/></clipPath></defs></svg>
